icons/fill-new-tool-edit-brush.svg

<svg xmlns="http://www.w3.org/2000/svg" width="32px" height="32px" viewBox="0 0 32 32" version="1.1">
    <title>fill-new-tool-edit-brush</title>
    <g id="fill-new-tool-edit-brush" stroke-width="1" fill-rule="evenodd">
        <path d="M2,13 L30,13 L30,20 C30,22.209139 28.209139,24 26,24 L22,24 L22,29 C22,29.5522847 21.5522847,30 21,30 L11,30 C10.4477153,30 10,29.5522847 10,29 L10,24 L6,24 C3.790861,24 2,22.209139 2,20 L2,13 Z M4,10.9999991 C4,8.52734375 4.57319021,6.0546875 5.71957064,3.58203125 C5.88098913,3.227595 6.23456608,3.00077882 6.62402344,2.99999912 L16.9753789,2.99999912 C17.4172067,2.99999912 17.7753789,3.35817221 17.7753789,3.80000001 C17.7753789,3.86540946 17.767357,3.93057203 17.7514929,3.99402851 L17,6.99999912 L21.726086,3.21913119 C21.9033991,3.07728075 22.1237096,2.99999912 22.3507811,2.99999912 L28.7460938,2.99999912 C29.1879211,2.99935255 29.5466185,3.35699881 29.5472676,3.79882614 C29.5472676,3.90705349 29.5256228,4.01418777 29.4820905,4.11328125 C28.4940302,6.40885417 28,8.70442708 28,10.9999991 L4,10.9999991 Z" id="&#24418;&#29366;" />
    </g>
</svg>

<svg xmlns="http://www.w3.org/2000/svg" viewBox="0 0 32 32"><path fill="currentColor" d="M2 13h28v7a4 4 0 0 1-4 4h-4v5a1 1 0 0 1-1 1H11a1 1 0 0 1-1-1v-5H6a4 4 0 0 1-4-4zm2-2c0-2.473.573-4.945 1.72-7.418A.995.995 0 0 1 6.624 3h10.351a.8.8 0 0 1 .776.994L17 7l4.726-3.78a1 1 0 0 1 .625-.22h6.395a.8.8 0 0 1 .736 1.113C28.494 6.41 28 8.704 28 11z"/></svg>
